Numix-Light/16/status/indicator-keyboard-Hu-7.svg

<?xml version="1.0" encoding="UTF-8" standalone="no"?>
<svg
   xmlns:dc="http://purl.org/dc/elements/1.1/"
   xmlns:cc="http://creativecommons.org/ns#"
   xmlns:rdf="http://www.w3.org/1999/02/22-rdf-syntax-ns#"
   xmlns:svg="http://www.w3.org/2000/svg"
   xmlns="http://www.w3.org/2000/svg"
   xmlns:sodipodi="http://sodipodi.sourceforge.net/DTD/sodipodi-0.dtd"
   xmlns:inkscape="http://www.inkscape.org/namespaces/inkscape"
   viewBox="0 0 16 16"
   id="svg2"
   version="1.1"
   inkscape:version="0.91 r13725"
   sodipodi:docname="indicator-keyboard-Hu-7.svg">
  <metadata
     id="metadata14">
    <rdf:RDF>
      <cc:Work
         rdf:about="">
        <dc:format>image/svg+xml</dc:format>
        <dc:type
           rdf:resource="http://purl.org/dc/dcmitype/StillImage" />
      </cc:Work>
    </rdf:RDF>
  </metadata>
  <defs
     id="defs12" />
  <sodipodi:namedview
     pagecolor="#ffffff"
     bordercolor="#666666"
     borderopacity="1"
     objecttolerance="10"
     gridtolerance="10"
     guidetolerance="10"
     inkscape:pageopacity="0"
     inkscape:pageshadow="2"
     inkscape:window-width="459"
     inkscape:window-height="369"
     id="namedview10"
     showgrid="false"
     inkscape:zoom="14.75"
     inkscape:cx="8"
     inkscape:cy="8"
     inkscape:window-x="65"
     inkscape:window-y="24"
     inkscape:window-maximized="0"
     inkscape:current-layer="svg2" />
  <path
     style="fill:#353535;fill-opacity:1"
     d="M 1.5996094 0 C 0.71320937 2.9605947e-16 0 0.71320937 0 1.5996094 L 0 14.400391 C 2.9605947e-16 15.286791 0.71320937 16 1.5996094 16 L 14.400391 16 C 15.286791 16 16 15.286791 16 14.400391 L 16 1.5996094 C 16 0.71320937 15.286791 0 14.400391 0 L 1.5996094 0 z M 1.3027344 4.859375 L 1.9140625 4.859375 L 1.9140625 7.5683594 L 5.2988281 7.5683594 L 5.2988281 4.859375 L 5.9101562 4.859375 L 5.9101562 11.095703 L 5.2988281 11.095703 L 5.2988281 8.0996094 L 1.9140625 8.0996094 L 1.9140625 11.095703 L 1.3027344 11.095703 L 1.3027344 4.859375 z M 7.4355469 6.4433594 L 8.0195312 6.4433594 L 8.0195312 8.8632812 C 8.0195312 9.1932813 8.0437969 9.4731719 8.0917969 9.7011719 C 8.1397969 9.9291721 8.2181719 10.115766 8.3261719 10.259766 C 8.4341719 10.397766 8.5722344 10.498453 8.7402344 10.564453 C 8.9142344 10.624453 9.1250937 10.654297 9.3710938 10.654297 C 9.6470937 10.654297 9.8858436 10.639375 10.089844 10.609375 C 10.293844 10.579375 10.422562 10.553297 10.476562 10.529297 L 10.476562 6.4433594 L 11.0625 6.4433594 L 11.0625 10.933594 C 10.8885 10.981594 10.655328 11.035703 10.361328 11.095703 C 10.067328 11.155703 9.70725 11.185547 9.28125 11.185547 C 8.93325 11.185547 8.6422031 11.135203 8.4082031 11.033203 C 8.1742031 10.931203 7.9838438 10.787563 7.8398438 10.601562 C 7.6958437 10.415563 7.5913906 10.189781 7.5253906 9.9257812 C 7.4653906 9.6617812 7.4355469 9.3707344 7.4355469 9.0527344 L 7.4355469 6.4433594 z M 12.234375 8.8417969 L 14.697266 8.8417969 L 14.697266 9.1816406 C 14.564666 9.3415406 14.417713 9.5551188 14.257812 9.8242188 C 14.101813 10.089419 13.954853 10.391163 13.814453 10.726562 C 13.674053 11.058062 13.550612 11.410756 13.445312 11.785156 C 13.343912 12.159556 13.281212 12.529884 13.257812 12.896484 L 12.853516 12.896484 C 12.876916 12.572784 12.935697 12.229888 13.029297 11.867188 C 13.126797 11.504488 13.244359 11.1518 13.380859 10.8125 C 13.521259 10.4732 13.672131 10.161653 13.832031 9.8769531 C 13.995831 9.5922532 14.152587 9.3649594 14.304688 9.1933594 L 12.234375 9.1933594 L 12.234375 8.8417969 z "
     id="path4" />
</svg>

<svg xmlns="http://www.w3.org/2000/svg" viewBox="0 0 16 16">
 <path d="m 1.6 0 c -0.886 0 -1.6 0.713 -1.6 1.6 l 0 12.801 c 0 0.886 0.713 1.6 1.6 1.6 l 12.801 0 c 0.886 0 1.6 -0.713 1.6 -1.6 l 0 -12.801 c 0 -0.886 -0.713 -1.6 -1.6 -1.6 l -12.801 0 z m -0.297 4.859 l 0.611 0 l 0 2.709 l 3.385 0 l 0 -2.709 l 0.611 0 l 0 6.236 l -0.611 0 l 0 -2.996 l -3.385 0 l 0 2.996 l -0.611 0 l 0 -6.236 z m 6.133 1.584 l 0.584 0 l 0 2.42 c 0 0.33 0.024 0.61 0.072 0.838 c 0.048 0.228 0.126 0.415 0.234 0.559 c 0.108 0.138 0.246 0.239 0.414 0.305 c 0.174 0.06 0.385 0.09 0.631 0.09 c 0.276 0 0.515 -0.015 0.719 -0.045 c 0.204 -0.03 0.333 -0.056 0.387 -0.08 l 0 -4.086 l 0.586 0 l 0 4.49 c -0.174 0.048 -0.407 0.102 -0.701 0.162 c -0.294 0.06 -0.654 0.09 -1.08 0.09 c -0.348 0 -0.639 -0.05 -0.873 -0.152 c -0.234 -0.102 -0.424 -0.246 -0.568 -0.432 c -0.144 -0.186 -0.248 -0.412 -0.314 -0.676 c -0.06 -0.264 -0.09 -0.555 -0.09 -0.873 l 0 -2.609 z m 4.799 2.398 l 2.463 0 l 0 0.34 c -0.133 0.16 -0.28 0.373 -0.439 0.643 c -0.156 0.265 -0.303 0.567 -0.443 0.902 c -0.14 0.332 -0.264 0.684 -0.369 1.059 c -0.101 0.374 -0.164 0.745 -0.188 1.111 l -0.404 0 c 0.023 -0.324 0.082 -0.667 0.176 -1.029 c 0.098 -0.363 0.215 -0.715 0.352 -1.055 c 0.14 -0.339 0.291 -0.651 0.451 -0.936 c 0.164 -0.285 0.321 -0.512 0.473 -0.684 l -2.07 0 l 0 -0.352 z" style="fill:#353535;fill-opacity:1"/>
</svg>
